public/assets/marketingBanner/enrolled.svg

<svg viewBox="0 0 100 100" xmlns="http://www.w3.org/2000/svg" id="Superman-Night-1--Streamline-Ux.svg" height="100" width="100"><desc>Superman Night 1 Streamline Illustration: https://streamlinehq.com</desc><path d="M1.7006 50.7006C1.7006 87.8815 41.9501 111.1196 74.1497 92.5291C89.0936 83.9012 98.2994 67.9563 98.2994 50.7006C98.2994 13.5196 58.0499 -9.7184 25.8503 8.872C10.9064 17.4999 1.7006 33.4448 1.7006 50.7006Z" fill="#d9edff" stroke-width="1"></path><path d="M47.6659 11.3546C47.8734 10.4541 48.5766 9.7509 49.4772 9.5434L53.1105 8.7054C53.3368 8.6528 53.4213 8.3749 53.2626 8.2052C53.2217 8.1615 53.1688 8.1309 53.1105 8.1174L49.4772 7.2794C48.5766 7.0719 47.8734 6.3687 47.6659 5.4681L46.8279 1.8372C46.7753 1.6109 46.4974 1.5264 46.3277 1.6851C46.284 1.726 46.2534 1.7789 46.2399 1.8372L45.4019 5.4681C45.1944 6.3687 44.4912 7.0719 43.5907 7.2794L39.9597 8.1174C39.7334 8.17 39.6489 8.4479 39.8077 8.6176C39.8485 8.6613 39.9015 8.6919 39.9597 8.7054L43.5907 9.5434C44.4912 9.7509 45.1944 10.4541 45.4019 11.3546L46.2399 14.988C46.2925 15.2143 46.5704 15.2988 46.7401 15.14C46.7838 15.0992 46.8144 15.0462 46.8279 14.988Z" fill="#ffffff" stroke="#000000" stroke-linecap="round" stroke-linejoin="round" stroke-width="1"></path><path d="M86.6581 66.6877C86.9612 65.3764 87.9851 64.3525 89.2964 64.0493L94.5913 62.8273C94.9212 62.7526 95.0466 62.3487 94.8168 62.1003C94.7565 62.035 94.6779 61.9896 94.5913 61.97L89.2964 60.748C87.9847 60.4457 86.9604 59.4214 86.6581 58.1097L85.4361 52.8185C85.3613 52.4885 84.9574 52.3632 84.709 52.5929C84.6438 52.6532 84.5984 52.7318 84.5788 52.8185L83.358 58.1097C83.0555 59.4216 82.0314 60.4461 80.7196 60.7492L75.4272 61.97C75.0972 62.0447 74.9719 62.4487 75.2017 62.6971C75.262 62.7623 75.3406 62.8077 75.4272 62.8273L80.7196 64.0493C82.0309 64.3525 83.0548 65.3764 83.358 66.6877L84.5788 71.9825C84.6535 72.3125 85.0575 72.4378 85.3059 72.2081C85.3711 72.1478 85.4165 72.0691 85.4361 71.9825Z" fill="#ffffff" stroke="#000000" stroke-linecap="round" stroke-linejoin="round" stroke-width="1"></path><path d="M11.6502 36.8592C11.8139 36.1503 12.3674 35.5968 13.0763 35.4331L15.938 34.7726C16.1165 34.7206 16.1717 34.4948 16.0373 34.3663C16.0093 34.3395 15.9753 34.3198 15.938 34.309L13.0763 33.6497C12.3671 33.4861 11.8132 32.9327 11.649 32.2236L10.9897 29.3631C10.9377 29.1846 10.7119 29.1294 10.5834 29.2638C10.5566 29.2918 10.5369 29.3259 10.5261 29.3631L9.8656 32.2236C9.7019 32.9325 9.1484 33.486 8.4395 33.6497L5.579 34.309C5.4005 34.361 5.3454 34.5868 5.4797 34.7153C5.5077 34.7421 5.5418 34.7618 5.579 34.7726L8.4395 35.4331C9.1484 35.5968 9.7019 36.1503 9.8656 36.8592L10.5261 39.7209C10.5781 39.8994 10.8039 39.9545 10.9324 39.8202C10.9592 39.7922 10.9789 39.7581 10.9897 39.7209Z" fill="#ffffff" stroke="#000000" stroke-linecap="round" stroke-linejoin="round" stroke-width="1"></path><path d="M3.1242 61.7817C2.4365 61.3046 2.4309 60.2896 3.1133 59.805L39.4949 33.9515C50.1126 26.4098 64.9128 33.1903 66.1352 46.1563C66.3049 47.9554 66.1851 49.7701 65.7806 51.5313L55.6583 95.5828C55.511 96.2208 54.8822 96.6252 54.2407 96.4945C27.2256 91.0028 25.5677 77.3763 3.1242 61.7817Z" fill="#ffd500" stroke="#000000" stroke-linecap="round" stroke-linejoin="round" stroke-width="1"></path><path d="M39.0807 78.7287C37.5223 80.7631 34.346 80.3475 33.3634 77.9807C32.9654 77.0222 33.0373 75.9329 33.5577 75.035L35.2977 72.0489C35.9469 70.9341 37.402 70.5978 38.4746 71.3148L40.6408 72.7637C41.7124 73.4811 41.9574 74.9536 41.1757 75.9793Z" fill="#ffd500" stroke="#000000" stroke-linecap="round" stroke-linejoin="round" stroke-width="1"></path><path d="M24.5486 69.0109C23.242 71.2154 24.8118 74.0078 27.3743 74.0371C28.436 74.0492 29.4398 73.5542 30.0765 72.7046L32.1727 69.9551C32.9549 68.9293 32.7093 67.4562 31.6366 66.7396L29.4703 65.2906C28.3981 64.5737 26.9434 64.91 26.2946 66.0248Z" fill="#ffd500" stroke="#000000" stroke-linecap="round" stroke-linejoin="round" stroke-width="1"></path><path d="M38.681 48.5802L27.606 65.1421C27.4199 65.4203 27.3681 65.7671 27.4647 66.0876C28.1542 68.3697 29.6213 69.3478 32.1558 68.54C32.3852 68.4666 32.5851 68.3214 32.7257 68.1258L39.5842 58.542C40.4673 57.2225 42.4475 57.3538 43.1487 58.7782C43.4741 59.4393 43.4221 60.2238 43.0123 60.8362L36.7756 70.8294C36.6477 71.0336 36.5897 71.2739 36.6102 71.514C36.8312 74.1705 38.3007 75.1473 40.6685 74.9131C41.0018 74.8799 41.3029 74.6997 41.4896 74.4216L52.5647 57.8597Z" fill="#ffffff" stroke="#000000" stroke-linecap="round" stroke-linejoin="round" stroke-width="1"></path><path d="M57.2256 32.3721C51.7766 28.7279 44.4051 30.1914 40.7615 35.6408L35.2614 43.865L39.8028 46.9018L36.6633 51.6001L40.1469 53.9306C41.6122 54.9097 43.5044 54.9788 45.0372 54.1093C44.8183 55.8579 45.6047 57.5803 47.0694 58.5601L50.5542 60.8893L60.4242 46.129C63.1145 47.9282 67.1596 46.5963 70.2677 41.9487L78.2129 30.0683L73.3431 26.808L66.8855 36.4643C66.1985 37.4911 64.8093 37.7668 63.7823 37.0801Z" fill="#ffd500" stroke="#000000" stroke-linecap="round" stroke-linejoin="round" stroke-width="1"></path><path d="M49.7585 47.0419L63.4792 36.8604L57.228 32.3721C56.1844 31.6713 55.0358 31.1414 53.8253 30.8024Z" fill="#ffffff" stroke="#000000" stroke-linecap="round" stroke-linejoin="round" stroke-width="1"></path><path d="M58.6927 33.6762L51.3512 40.6977L49.7561 47.0419L55.0087 43.1441L58.6927 33.6762Z" fill="#ffd500" stroke="#000000" stroke-linecap="round" stroke-linejoin="round" stroke-width="1"></path><path d="M47.3109 35.6746L39.8028 46.9018" fill="none" stroke="#000000" stroke-linecap="round" stroke-linejoin="round" stroke-width="1"></path><path d="M49.7561 47.0419L45.0312 54.1069" fill="none" stroke="#000000" stroke-linecap="round" stroke-linejoin="round" stroke-width="1"></path><path d="M53.8229 30.8048L52.6987 35.2955L57.0747 36.0864L56.3115 31.8191C55.5234 31.3872 54.6884 31.0469 53.8229 30.8048Z" fill="#ffffff" stroke="#000000" stroke-linecap="round" stroke-linejoin="round" stroke-width="1"></path><path d="M63.4768 36.8604L61.2622 35.2701L57.0747 36.0864L59.4522 39.8465L63.4768 36.8604Z" fill="#ffffff" stroke="#000000" stroke-linecap="round" stroke-linejoin="round" stroke-width="1"></path><path d="M53.8229 30.8048C52.7521 30.5053 51.6444 30.3586 50.5325 30.3689L49.6052 31.4557C49.5102 31.5666 49.4912 31.7237 49.5569 31.8541L50.5011 33.7209C50.7909 34.296 50.5784 34.9973 50.0181 35.3148L49.2127 35.7736C48.7922 36.0123 48.5547 36.4789 48.609 36.9594L49.7585 47.0419Z" fill="#ffd500" stroke="#000000" stroke-linecap="round" stroke-linejoin="round" stroke-width="1"></path><path d="M49.7585 47.0419L63.4526 36.8809L64.8907 37.8191L64.3292 40.414C64.2018 41.004 63.6584 41.4093 63.0566 41.3631L61.7802 41.2653C61.1384 41.2164 60.5712 41.6796 60.4906 42.3182L60.3699 43.2383C60.309 43.7169 59.9691 44.1134 59.5053 44.2466Z" fill="#ffd500" stroke="#000000" stroke-linecap="round" stroke-linejoin="round" stroke-width="1"></path><path d="M34.6106 46.2413C33.5981 47.7279 34.5746 49.7531 36.3683 49.8866C37.215 49.9496 38.0292 49.5484 38.4951 48.8386L39.7943 46.897L35.9098 44.2985Z" fill="#ffffff" stroke="#000000" stroke-linecap="round" stroke-linejoin="round" stroke-width="1"></path><path d="M56.3115 31.8179L57.0747 36.0864L61.2646 35.2701L64.6384 30.2627L59.6345 26.8914L56.3115 31.8179Z" fill="#ffffff" stroke="#000000" stroke-linecap="round" stroke-linejoin="round" stroke-width="1"></path><path d="M74.4866 23.712C75.7195 21.8491 78.3099 21.496 79.9964 22.961C81.3982 24.2763 81.6199 26.422 80.5168 27.9962L79.9879 28.7944C79.2484 29.912 77.7513 30.2338 76.6178 29.5188L74.5349 28.2051C73.366 27.4681 73.0314 25.9141 73.7935 24.7614Z" fill="#ffffff" stroke="#000000" stroke-linecap="round" stroke-linejoin="round" stroke-width="1"></path><path d="M17.3401 57.0756L23.8777 47.3734C24.4792 46.4808 25.6903 46.2447 26.583 46.8462L41.1369 56.653C42.03 57.2548 42.2662 58.4667 41.6644 59.3599L35.1274 69.0612C34.5256 69.9543 33.3136 70.1905 32.4205 69.5887L17.8666 59.7819C16.974 59.1804 16.7379 57.9693 17.3394 57.0767Z" fill="#ffffff" stroke="#000000" stroke-linecap="round" stroke-linejoin="round" stroke-width="1"></path><path d="M29.0091 48.4812L20.2922 61.417" fill="none" stroke="#000000" stroke-linecap="round" stroke-linejoin="round" stroke-width="1"></path><path d="M38.7112 55.0185L29.9944 67.9543" fill="none" stroke="#000000" stroke-linecap="round" stroke-linejoin="round" stroke-width="1"></path><path d="M30.6259 49.5704L32.0157 47.5092C32.7524 46.4152 34.2367 46.1259 35.3303 46.8632L37.837 48.5537C38.9305 49.2912 39.2197 50.7753 38.483 51.8694L37.0944 53.9246" fill="none" stroke="#000000" stroke-linecap="round" stroke-linejoin="round" stroke-width="1"></path><path d="M17.3401 57.0756L23.8777 47.3734C24.4792 46.4808 25.6903 46.2447 26.583 46.8462L41.1369 56.653C42.03 57.2548 42.2662 58.4667 41.6644 59.3599L35.1274 69.0612C34.5256 69.9543 33.3136 70.1905 32.4205 69.5887L17.8666 59.7819C16.974 59.1804 16.7379 57.9693 17.3394 57.0767Z" fill="none" stroke="#000000" stroke-linecap="round" stroke-linejoin="round" stroke-width="1"></path><path d="M71.2928 31.1031C71.7056 30.4721 71.6173 29.6377 71.0815 29.1071L71.6526 28.2522C74.9524 23.3197 71.6752 16.6647 65.7536 16.2732C63.0054 16.0916 60.369 17.3899 58.8376 19.679L58.2652 20.5339C57.1632 20.0382 55.9378 20.9213 56.0595 22.1235C56.1032 22.5555 56.3238 22.95 56.6689 23.2134C54.4469 28.7157 59.0145 34.5601 64.8907 33.7333C66.5227 33.5037 68.0382 32.7571 69.2147 31.603C69.9329 31.9955 70.8317 31.7793 71.2928 31.1031Z" fill="#ffffff" stroke="#000000" stroke-linecap="round" stroke-linejoin="round" stroke-width="1"></path><path d="M63.1073 23.7012C62.6955 24.3204 61.7678 24.2617 61.4375 23.5955C61.1071 22.9293 61.6218 22.1553 62.3639 22.2022C62.5347 22.213 62.6996 22.269 62.8416 22.3645C63.2829 22.661 63.4017 23.2584 63.1073 23.7012Z" fill="#000000" stroke-width="1"></path><path d="M66.3107 25.8433C65.896 26.4605 66.305 27.2952 67.0469 27.3457C67.7888 27.3963 68.3072 26.6247 67.98 25.957C67.9047 25.8033 67.7899 25.6724 67.6474 25.5776C67.2047 25.2832 66.6072 25.4019 66.3107 25.8433Z" fill="#000000" stroke-width="1"></path><path d="M60.6114 25.1224C60.1996 25.7416 59.272 25.6829 58.9416 25.0167C58.6112 24.3505 59.1259 23.5765 59.868 23.6234C60.0388 23.6343 60.2037 23.6902 60.3457 23.7857C60.7871 24.0822 60.9058 24.6796 60.6114 25.1224Z" fill="#ffd500" stroke-width="1"></path><path d="M67.5532 29.7652C67.1415 30.3844 66.2138 30.3257 65.8834 29.6595C65.553 28.9933 66.0677 28.2193 66.8099 28.2662C66.9807 28.277 67.1455 28.333 67.2876 28.4285C67.7289 28.725 67.8476 29.3224 67.5532 29.7652Z" fill="#ffd500" stroke-width="1"></path><path d="M60.3965 27.7547C60.9339 29.0498 62.1977 29.8944 63.5999 29.8956" fill="none" stroke="#000000" stroke-linecap="round" stroke-linejoin="round" stroke-width="1"></path><path d="M73.2574 27.0109C76.8305 21.6661 73.2778 14.4577 66.8625 14.0357C63.8852 13.8398 61.0296 15.2472 59.3713 17.7277L57.9428 19.8626C59.9046 20.5656 62.0829 20.3049 63.8233 19.1586C65.4715 23.1735 69.6965 25.4025 73.2574 27.0109Z" fill="#ffffff" stroke="#000000" stroke-linecap="round" stroke-linejoin="round" stroke-width="1"></path><path d="M63.4731 17.3764C63.4565 17.9894 63.5774 18.5984 63.8269 19.1586" fill="none" stroke="#000000" stroke-linecap="round" stroke-linejoin="round" stroke-width="1"></path></svg>

<svg xmlns="http://www.w3.org/2000/svg" width="100" height="100"><desc>Superman Night 1 Streamline Illustration: https://streamlinehq.com</desc><path fill="#d9edff" d="M1.7 50.7c0 37.182 40.25 60.42 72.45 41.83A48.3 48.3 0 0 0 98.3 50.7c0-37.18-40.25-60.418-72.45-41.828A48.3 48.3 0 0 0 1.7 50.701"/><path fill="#fff" stroke="#000" stroke-linecap="round" stroke-linejoin="round" d="M47.666 11.355c.207-.9.91-1.604 1.811-1.812l3.634-.838a.302.302 0 0 0 0-.588l-3.634-.838a2.42 2.42 0 0 1-1.811-1.81l-.838-3.632a.302.302 0 0 0-.588 0l-.838 3.631c-.208.9-.91 1.604-1.811 1.811l-3.631.838a.302.302 0 0 0 0 .588l3.63.838c.901.208 1.604.911 1.812 1.812l.838 3.633a.302.302 0 0 0 .588 0ZM86.658 66.688a3.52 3.52 0 0 1 2.638-2.639l5.295-1.222a.44.44 0 0 0 0-.857l-5.295-1.222a3.52 3.52 0 0 1-2.638-2.638l-1.222-5.291a.44.44 0 0 0-.857 0l-1.221 5.29a3.52 3.52 0 0 1-2.638 2.64l-5.293 1.221a.44.44 0 0 0 0 .857l5.293 1.222a3.52 3.52 0 0 1 2.638 2.639l1.22 5.294a.44.44 0 0 0 .858 0ZM11.65 36.86a1.9 1.9 0 0 1 1.426-1.427l2.862-.66a.241.241 0 0 0 0-.464l-2.862-.66a1.9 1.9 0 0 1-1.427-1.425l-.66-2.86a.241.241 0 0 0-.463 0l-.66 2.86A1.9 1.9 0 0 1 8.44 33.65l-2.861.659a.241.241 0 0 0 0 .464l2.86.66a1.9 1.9 0 0 1 1.427 1.426l.66 2.862a.241.241 0 0 0 .464 0Z"/><path fill="#ffd500" stroke="#000" stroke-linecap="round" stroke-linejoin="round" d="M3.124 61.782a1.208 1.208 0 0 1-.01-1.977l36.38-25.853c10.619-7.542 25.419-.762 26.641 12.204.17 1.8.05 3.614-.354 5.375L55.658 95.583a1.21 1.21 0 0 1-1.417.912C27.226 91.003 25.568 77.376 3.124 61.782"/><path fill="#ffd500" stroke="#000" stroke-linecap="round" stroke-linejoin="round" d="M39.08 78.729c-1.558 2.034-4.734 1.618-5.717-.748a3.33 3.33 0 0 1 .195-2.946l1.74-2.986a2.237 2.237 0 0 1 3.177-.734l2.166 1.449a2.24 2.24 0 0 1 .535 3.215ZM24.549 69.01c-1.307 2.205.263 4.998 2.825 5.027a3.33 3.33 0 0 0 2.703-1.332l2.096-2.75a2.236 2.236 0 0 0-.536-3.215l-2.167-1.45a2.236 2.236 0 0 0-3.175.735Z"/><path fill="#fff" stroke="#000" stroke-linecap="round" stroke-linejoin="round" d="M38.681 48.58 27.606 65.142a1.12 1.12 0 0 0-.141.946c.69 2.282 2.156 3.26 4.69 2.452.23-.073.43-.219.57-.414l6.86-9.584c.882-1.32 2.862-1.188 3.564.236a2.06 2.06 0 0 1-.137 2.058l-6.236 9.993a1.1 1.1 0 0 0-.166.685c.221 2.657 1.69 3.633 4.059 3.4.333-.034.634-.214.82-.492L52.566 57.86Z"/><path fill="#ffd500" stroke="#000" stroke-linecap="round" stroke-linejoin="round" d="M57.226 32.372c-5.45-3.644-12.82-2.18-16.464 3.269l-5.5 8.224 4.54 3.037-3.139 4.698 3.484 2.33a4.66 4.66 0 0 0 4.89.18 4.66 4.66 0 0 0 2.032 4.45l3.485 2.33 9.87-14.761c2.69 1.8 6.736.467 9.844-4.18l7.945-11.88-4.87-3.261-6.458 9.656a2.237 2.237 0 0 1-3.103.616Z"/><path fill="#fff" stroke="#000" stroke-linecap="round" stroke-linejoin="round" d="m49.759 47.042 13.72-10.182-6.251-4.488a11.8 11.8 0 0 0-3.403-1.57Z"/><path fill="#ffd500" stroke="#000" stroke-linecap="round" stroke-linejoin="round" d="m58.693 33.676-7.342 7.022-1.595 6.344 5.253-3.898z"/><path fill="none" stroke="#000" stroke-linecap="round" stroke-linejoin="round" d="m47.31 35.675-7.507 11.227M49.756 47.042l-4.725 7.065"/><path fill="#fff" stroke="#000" stroke-linecap="round" stroke-linejoin="round" d="m53.823 30.805-1.124 4.49 4.376.791-.764-4.267a11.8 11.8 0 0 0-2.488-1.014M63.477 36.86l-2.215-1.59-4.187.816 2.377 3.76z"/><path fill="#ffd500" stroke="#000" stroke-linecap="round" stroke-linejoin="round" d="M53.823 30.805a11.8 11.8 0 0 0-3.29-.436l-.928 1.087a.36.36 0 0 0-.048.398l.944 1.867c.29.575.077 1.276-.483 1.594l-.805.459c-.42.238-.658.705-.604 1.185l1.15 10.083Z"/><path fill="#ffd500" stroke="#000" stroke-linecap="round" stroke-linejoin="round" d="M49.759 47.042 63.453 36.88l1.438.938-.562 2.595c-.127.59-.67.995-1.272.95l-1.277-.099a1.207 1.207 0 0 0-1.29 1.053l-.12.92c-.061.479-.4.875-.865 1.009Z"/><path fill="#fff" stroke="#000" stroke-linecap="round" stroke-linejoin="round" d="M34.61 46.241c-1.012 1.487-.035 3.512 1.758 3.646a2.34 2.34 0 0 0 2.127-1.048l1.3-1.942-3.885-2.599ZM56.312 31.818l.763 4.268 4.19-.816 3.373-5.007-5.004-3.372zM74.487 23.712a3.7 3.7 0 0 1 5.51-.751 3.864 3.864 0 0 1 .52 5.035l-.53.798a2.464 2.464 0 0 1-3.37.725l-2.082-1.314a2.464 2.464 0 0 1-.742-3.444ZM17.34 57.076l6.538-9.703a1.95 1.95 0 0 1 2.705-.527l14.554 9.807a1.95 1.95 0 0 1 .527 2.707l-6.537 9.701a1.95 1.95 0 0 1-2.707.528l-14.553-9.807a1.95 1.95 0 0 1-.528-2.705Z"/><path fill="none" stroke="#000" stroke-linecap="round" stroke-linejoin="round" d="m29.01 48.481-8.718 12.936M38.711 55.019l-8.717 12.935M30.626 49.57l1.39-2.06a2.387 2.387 0 0 1 3.314-.647l2.507 1.69a2.39 2.39 0 0 1 .646 3.316l-1.389 2.056M17.34 57.076l6.538-9.703a1.95 1.95 0 0 1 2.705-.527l14.554 9.807a1.95 1.95 0 0 1 .527 2.707l-6.537 9.701a1.95 1.95 0 0 1-2.707.528l-14.553-9.807a1.95 1.95 0 0 1-.528-2.705Z"/><path fill="#fff" stroke="#000" stroke-linecap="round" stroke-linejoin="round" d="M71.293 31.103a1.59 1.59 0 0 0-.212-1.996l.572-.855c3.3-4.932.022-11.587-5.9-11.979a7.71 7.71 0 0 0-6.915 3.406l-.573.855a1.57 1.57 0 0 0-1.596 2.68c-2.222 5.502 2.346 11.346 8.222 10.52a7.7 7.7 0 0 0 4.324-2.131 1.59 1.59 0 0 0 2.078-.5"/><path d="M63.107 23.701a.966.966 0 1 1-1.608-1.07.966.966 0 0 1 1.608 1.07M66.31 25.843a.966.966 0 1 0 1.604 1.078.966.966 0 0 0-1.603-1.078"/><path fill="#ffd500" d="M60.611 25.122a.966.966 0 1 1-1.608-1.07.966.966 0 0 1 1.608 1.07M67.553 29.765a.966.966 0 1 1-1.609-1.07.966.966 0 0 1 1.61 1.07"/><path fill="none" stroke="#000" stroke-linecap="round" stroke-linejoin="round" d="M60.397 27.755a3.47 3.47 0 0 0 3.203 2.14"/><path fill="#fff" stroke="#000" stroke-linecap="round" stroke-linejoin="round" d="M73.257 27.01c3.573-5.344.02-12.552-6.395-12.974a8.35 8.35 0 0 0-7.49 3.692l-1.43 2.135a6.63 6.63 0 0 0 5.881-.704c1.649 4.015 5.874 6.244 9.434 7.852"/><path fill="none" stroke="#000" stroke-linecap="round" stroke-linejoin="round" d="M63.473 17.376a4.1 4.1 0 0 0 .354 1.783"/></svg>
